X: 272
T: A Mhor, A Mhor
R: slide
M: 12/8
K: Fmajor
A2|A4 A2 A4 A2|A c3 A2 A G3 F2|F4 dc d2 cA c2|c4 d2 A4 F2|
F2 d2 c2 d2 c2 A2|c4 d2 F2 dc c2|d4 c2 A4 A2|c4 d2 F4 A2||

